X:1
T:Title
%%score { ( 1 3 ) | 2 }
L:1/8
M:4/4
K:A
V:1 treble nm="Grand Piano"
V:3 treble 
V:2 bass 
V:1
 z4 z2[Q:1/4=104] E2 | [Ec]3 [DB] [CA]>[EG] [FA]>[DF] | E4 A2 z2 | B4 [EA]3 B |[M:3/4] c6 | %5
[M:1/4] E2 |[M:4/4] [Ec]3 [DB] [CA]>[EG] [FA]>[DF] | E4 A2 z2 | B4 c3 B |[M:3/4] [CA]6 | %10
[M:1/4] [Ee]>[Ee] |[M:4/4] [Ec]3 [DB] [CA]>[EG] [FA]>[DF] | E4 A2 e>e | c3 B [EA]3 [FB] | %14
[M:7/8] [Ec]2 [DB]2 [CA]3 |] %15
V:2
 z4 z2 E,2 | [A,,A,]3 [A,,A,] [A,,A,]>[A,,A,] [A,,A,]>[A,,A,] | [A,,A,]6 z2 | %3
 [E,G,E]4 [C,A,]3 [E,G,E] |[M:3/4] [A,E]6 |[M:1/4] E,2 | %6
[M:4/4] [A,,A,]3 [A,,A,] [A,,A,]>[A,,A,] [A,,A,]>[A,,A,] | [A,,A,]6 z2 | %8
 [E,G,E]4 [E,A,E]3 [E,G,D] |[M:3/4] [A,,A,]6 |[M:1/4] [A,,C]>[A,,C] | %11
[M:4/4] [A,,A,]3 [A,,A,] [A,,A,]>[A,,A,] [A,,A,]>[A,,A,] | [A,,A,]6 [A,CE]>[A,CE] | %13
 [A,E]3 [E,G,E] [C,A,]3 [D,A,] |[M:7/8] [E,A,]2 [E,G,]2 [A,,A,]3 |] %15
V:3
 x8 | x8 | C6 z2 | x8 |[M:3/4] x6 |[M:1/4] x2 |[M:4/4] x8 | C6 z2 | x8 |[M:3/4] x6 |[M:1/4] x2 | %11
[M:4/4] x8 | C6 z2 | x8 |[M:7/8] x7 |] %15

